X:1
T:Contrapunctus XII (A = 415 Hz)
T:BWV 1080 The Art of Fugue
T:J. S. Bach
%%score { 1 | 2 } { 3 | 4 }
L:1/8
M:3/4
K:E
V:1 alto1 nm="Harp"
V:2 alto 
V:3 tenor nm="Harp"
V:4 bass 
V:1
"^Rectus" z6 | z6 | z6 | z6 | z6 | z6 | z6 | z6 | z6 | z6 | z6 | z6 | z6 | G2 c4 | B2 G4 | %15
 =G2 ^G2 ^A2 | B3 c BA | G3 A GF | E3 F ED | EF G2- G^A/^B/ | c/d/e/f/ g2- g/a/g/f/ | %21
 ed c2- c^B/^A/ | ^B2 c2- cd | e2- ef ed | c4 z/ c/d/^e/ | f/^e/f/g/ a z z2 | z4 c2- | cB AG F^E | %28
 F=D C4- | C=D/E/ FE DC | B,2- B,/C/=D/B,/ C/A,/B,/G,/ | A,2- A,/B,/C/=D/ E2- | E2 e=d ce | %33
 B/A/G/F/ E2- E/F/E/=D/ | C/D/^E/F/ G4 | A/G/A/B/ c/B/c/=d/ e/d/c/B/ | A/=G/F/G/ A A2 B/c/ | =d6- | %38
 de/f/ e=d c2- | c4- cd/e/ | d/c/^B/c/ Bc d2 | G g2 f/e/ d/f/e/d/ | c/^B/c/d/ e2- e/d/e/f/ | %43
 g/f/g/a/ g/f/e/d/ c2- | c/^B/c/d/ c/=B/A/G/ ^A/^B/c/d/ | e/d/e/f/ e/d/c/^B/ c/d/e/c/ | %46
 A/G/A/B/ Ac Ac | f/e/f/g/ f/e/d- d/e/d/c/ | ^B/^A/B/c/ B/d/D- D/E/F/G/4=A/4 | G6- | G6- | G6- | %52
 G6- | GF/^E/ F/G/A/B/ c2- | cB AG F/G/A | G6 | z6 |"^Inversus" G2 C4 | E2 G4 | A2 G2 F2 | %60
 E3 D EF | G2 z F ED | C2 z B, A,G, | F,G, A,B, C=D | CD/E/ F3 G/F/ | EF/G/ A2- AB/A/ | G2 z e dc | %67
 Bc c/4^B/4c/4B/4c/4B/4c/4B/4 c/4B/4c/4B/4c/4B/4c/4B/4 | c6- | c/d/e/d/ c^B cd | ef g2 z ^B | %71
 c/d/e/f/ e2 z ^E | F/G/A/B/ A2 z F | c/B/A/G/ F2 f2 | e/d/c/B/ A2 a2 | g/f/e/d/ c2 z ^B | %76
 cd ef g2 | z6 | z4 G/F/E/D/ | C/^B,/C/D/ EF GA | G^A/^B/ c2- cd/c/ | Bd G2 z/ B/^A/G/ | %82
 =G^G/^A/ Bc de | dc Bc B^A | G2 F2 z/ F/G/^A/ | B/c/d/e/ d/g/f/e/ d/c/B/A/ | B/c/d/c/ B2 z B | %87
 A/G/F/A/ c2 z/ G/F/E/ | DE/F/ GA Bc | BA GF E2- | E/D/E/F/ G2- G/F/G/A/ | Bc/d/ e4 | df B2 z2 | %93
 z6 | z6 | z6 | z6 | z6 | G/F/E/D/ C2- C/^B,/C/D/ | EF G2- GA/B/ | A2 G2- GF | E3 D EF | %102
 G2- G/A/G/F/ EG | D2- D/E/D/C/ DE | F2- F/G/F/E/ DF | C2- C/D/C/^B,/ CF | E3 F/G/ A/c/B/A/ | %107
 G/A/G/F/ E2- E/F/E/D/ | C z g/f/e/d/ c2- | cd ef e/c/B/A/ | G6- | G6- | %112
 G2- G/c/4d/4^e/4d/4c/ g2 |] %113
V:2
 z6 | z6 | z6 | z6 | z6 | z6 | z6 | z6 | z6 | C2 G4 | E2 C4 | ^B,2 C2 D2 | E3 F ED | C2 z D EF | %14
 G2 z ^A Bc | dc B^A G=G | G3 A GF | E3 F ED | C3 D C^B, | CD E2- EF/D/ | EG CG,/^A,/ ^B,C/D/ | %21
 C^B, C/D/E/F/ G2- | G4 A2 | G C2 D CB, | A,3/2B,/4A,/4 G,2 z2 | F/G/A/B/ c2- c/d/c/B/ | %26
 AG F2- F^E/D/ | ^E2 F2- FG | A3 B AG | F3 =G FE | =D3 F ED | C2- C/=D/E/D/ C/D/C/B,/ | %32
 A,G,/F,/ E,2- E,/F,/G,/A,/ | B,2 C/=D/C/B,/ A,2- | A,/B,/C/=D/ CB,/A,/ G,G | F2 E2- EF/=G/ | %36
 F/E/=D/E/ F/E/F/=G/ FE | =D2 z/ G,/F,/A,/ B,/C/D/C/ | B,G, A,B, C^E | F/G/A/B/ A/c/G/B/ AF | %40
 GA GE ^B,/C/D/B,/ | C2- C/E/D/C/ ^B,2 | C2- C/D/E/F/ G2- | GD EG A3/2G/4F/4 | %44
 E/D/E/F/ E/D/ C2 ^B, | CG, C/D/E- E/F/G/E/ | C2 z2 z C | DB, DF- F/G/F/E/ | DG z4 | %49
 C/D/E/F/ G2- GF | ED C2- C^B,/^A,/ | ^B,2 C2- CD | ED EF ED | C z D z/ z ^E/F/G/ | AG F^E D2 | %55
 z/ D/^E/F/ E4 | z6 | z6 | z6 | z6 | z6 | C2 G,4 | A,2 C4 | =D2 C2 B,2 | A,3 G, ^A,B, | C3 ^B, CD | %66
 E/D/E/F/ GC B,A, | G,2 z F, E,D, | C,D, E,F, G,A, | G,3 A, G,F, | CD EF GF | ED C=D CB, | %72
 A,G, F,4- | F,C F2 z G, | A,E A2 z ^B, | CG,/F,/ E,A, G,D | C3 D EF | G2- G/F/E/D/ C2- | %78
 C/C,/C/D/ E/F/G/F/ EE, | F,2 E,2- E,D, | E,2 E4- | ED/F/ E/C/B,/^A,/ G,A, | %82
 B,/^A,/B,/C/ D/E/D/C/ B,/A,/G,/=G,/ | G,2 z4 | z6 | z6 | z6 | z6 | %88
 B,/A,/G,/F,/ E,2- E,/D,/E,/F,/ | G,A, B,2- B,C/=D/ | C2 B,2- B,A, | G,3 F, G,^A, | %92
 B,2- B,/C/B,/A,/ G,B, | F,2- F,/G,/F,/E,/ F,G, | A,/B,/A,/G,/ A,B, C=D | CE =DC B,/A,/G,/^A,/ | %96
 ^B,C DE DF | ED C/D/C/^B,/ CD | E/D/C- C/B,/A,/G,/ F,C,- | C,D, E,C, G,2 | %100
 z2 z/ A/G/F/ E/C/D/^B,/ | C3 B, CD | E/D/C G z2 G,- | G,D,/C,/ D,B,/^A,/ G,/A,/B,/C/ | %104
 D/C/ ^B,2 D =B,F,- | F,/G,/F,/E,/ D, A,2 A, | G,2- G,/B,/A,/G,/ F,/A,/G,/F,/ | C z G/F/E/D/ C2- | %108
 C/^B,/C/D/ E2- E/F/G/A/ | G/C/B,/A,/ G,/F,/G,/A,/ G,D | E^B,- B,/C/D/C/ B,/^A,/B,/C/ | %111
 D/G/F/E/ D/C/^B,/^A,/ B,/C/D/^E/4F/4 | ^E/D/C G4 |] %113
V:3
 z6 | z6 | z6 | z6 | G,2 C4 | B,2 G,4 | =G,2 ^G,2 ^A,2 | B,3 C B,A, | G,3 A, G,F, | %9
 E,/F,/E,/D,/ C,G, ^A,^B, | C2 z D EF | GF ED C^B, | C3 ^B, CD | G,F, E,D, C,D, | %14
 E,F, G,=G, ^G,^A, | B,C D4- | DG, D,2 z C | B,E, B,,2 z A, | G,C/D/ E^B, CF, | G,3 F, E,D, | %20
 C,2- C,/D,/E,/F,/ G,2- | G,/G/G,/F,/ E,/D,/C,/D,/ E,E | D2 E3 F | E2 E,4- | %24
 E,F,/D,/ ^E,/G,/A,/B,/ CB, | A,/B,/A,/G,/ F,/^E,/F,/G,/ A,/B,/C/D/ | C2 z4 | z6 | z6 | z6 | z6 | %31
 A,/B,/C/=D/ E2- E/F/E/D/ | CB, A,2- A,G,/F,/ | G,2 A,2- A,B, | C3 =D CB, | A,2- A,/G,/A,/B,/ CA, | %36
 =D2- D/C/D/E/ DC | B,/A,/B,/C/ B,A, G,F, | G,E, F,G, A,/B,/C/B,/ | A,G, F,^E, F,D, | %40
 E,F, G,/F,/G,/A,/ G,F, | E,/F,/G,- G,/^A,/^B,/C/ DG- | GF EG C2 | z2 z/ ^B,,/C,/D,/ E,/G,/F,/A,/ | %44
 G,3 A, G,F, | E,/F,/G, C, z2 C- | CF/^E/ FA,/B,/ C/B,/A,/G,/ | F,/G,/ A,2 ^A,2 D- | %48
 D/C/D/E/ F ^B,2 B, | C2- C/^A,/^B,/C/ D/B,/C/D/ | G, z C,/D,/E,/F,/ G,2- | %51
 G,/A,/G,/F,/ E,2- E,/D,/C,/^B,,/ | C,/G,/^A,/^B,/ C/D/C/B,/ CF, | %53
 E,A,- A,/G,/F,/G,/ A,/B,/A,/G,/ | F,/C,/D,/^E,/ F,/G,/A,/B,/ A,/G,/F,/E,/4D,/4 | ^E,/F,/G, C,4 | %56
 z6 | z6 | z6 | z6 | z6 | z6 | z6 | z6 | z6 | z6 | G,2 C,4 | E,2 G,4 | A,2 G,2 F,2 | E,3 D, E,F, | %70
 G,2 z F, E,D, |[K:bass] C,2 z B,, A,,G,, | F,,G,, A,,B,, C,=D, | C,3 ^B,, C,D, | %74
 C,3[K:tenor] D, E,F, | G,3 F, G,A, | G,F, E,2- E,D,/F,/ | E,C, G,C/B,/ A,G,/F,/ | %78
 G,A, G,/F,/E,/D,/ C,2- | C,4 ^B,,2 | C, G,2 F, G,^A, | B,3/2^A,/4B,/4 C2 z2 | %82
[K:bass] D,/C,/B,,/^A,,/ G,,2- G,,/=G,,/^G,,/A,,/ | B,,C, D,2- D,E,/F,/ | E,2 D,2- D,C, | %85
 B,,3 ^A,, B,,C, | D,3 C, D,^E, | F,3 D, E,F, | G,2-[K:tenor] G,/F,/E,/F,/ G,/F,/G,/A,/ | %89
 B,C/D/ E2- E/=D/C/B,/ | A,2 G,/F,/G,/A,/ B,2- | B,/A,/G,/F,/ G,^A,/B,/ CC, | D,2 E,2- E,D,/C,/ | %93
 D,/E,/F,/E,/ D,/E,/D,/C,/ D,^E, | F,2 z/ C/=D/B,/ A,/G,/F,/G,/ | A,C B,A, G,E, | %96
 D,/C,/^B,,/^A,,/ B,,/G,,/C,/A,,/ B,,D, | C,^B,, C,E, A,/G,/F,/A,/ | G,2- G,/E,/F,/G,/ A,2 | %99
 G,2- G,/F,/E,/D,/ C,2- | C,F, E,C, ^B,,3/2C,/4D,/4 | E,/F,/E,/D,/ E,/F,/ G,2 A, | %102
 G,C G,/F,/E,- E,/D,/C,/E,/ | G,2 z2 z G, | F,A, F,D,- D,/C,/D,/^E,/ | F,C, z2 z2 | %106
 G,/F,/E,/D,/ C,2- C,D, | E,F, G,2- G,A,/B,/ | A,2 G,2- G,F, | E,F, E,D, E,F, | %110
 G, z F, z/ z E,/D,/C,/ | ^B,,C, D,E, F,2 | z/ F,/^E,/D,/ E,4 |] %113
V:4
 C,2 G,4 | E,2 C,4 | ^B,,2 C,2 D,2 | E,3 F, E,D, | C,2 z D, E,F, | G,2 z ^A, B,C | DC B,^A, G,=G, | %7
 G,F,/E,/ E,/4D,/4E,/4D,/4E,/4D,/4E,/4D,/4 E,/4D,/4E,/4D,/4 C,/D,/ | %8
 E,D,/C,/ C,/4^B,,/4C,/4B,,/4C,/4B,,/4C,/4B,,/4 C,/4B,,/4C,/4B,,/4A,,/4B,,/4^A,,/4B,,/4 | %9
 C,2 z E,, F,,G,, | %10
 A,,G,, B,,/4A,,/4B,,/4A,,/4B,,/4A,,/4B,,/4A,,/4 B,,/4A,,/4B,,/4A,,/4B,,/4A,,/4B,,/4A,,/4 | G,,6- | %12
 G,,/F,,/E,,/F,,/ G,,A,, G,,F,, | E,,D,, C,,2 z A,, | G,,/F,,/E,,/D,,/ E,,2 z E, | %15
 D,/C,/B,,/^A,,/ B,,2 z D, | G,,/^A,,/B,,/C,/ D,2 D,,2 | E,,/F,,/G,,/A,,/ B,,2 B,,,2 | %18
 C,,/D,,/E,,/F,,/ G,,2 z A,, | G,,F,, E,,D,, C,,2 | z6 | z4 C,/D,/E,/F,/ | %22
 G,/A,/G,/F,/ E,D, C,^B,, | C,B,,/A,,/ G,,2- G,,F,,/G,,/ | A,,F,, C,2 z/ A,,/B,,/C,/ | %25
 D,C,/B,,/ A,,G,, F,,^E,, | F,,G,, A,,G,, A,,B,, | C,2 =D,2 z/ D,/C,/B,,/ | %28
 A,,/G,,/F,,/^E,,/ F,,/C,,/D,,/E,,/ F,,/G,,/A,,/B,,/ | A,,/G,,/F,,/G,,/ A,,2 z ^A,, | %30
 B,,/C,/=D,/B,,/ G,,2 z/ C,/D,/E,/ | F,E,/=D,/ C,B,, A,,G,, | A,,B,, C,=D, E,2- | %33
 E,/F,/E,/=D,/ C,2- C,/D,/C,/B,,/ | A,,G,,/F,,/ ^E,,4 | F,,=D,, A,,2 z2 | z6 | z6 | z6 | z6 | z6 | %41
 C,/D,/E,/F,/ G,2- G,/A,/G,/F,/ | E,D, C,2- C,^B,,/^A,,/ | ^B,,2 C,2- C,D, | E,3 F, E,D, | %45
 C,2- C,/B,,/C,/D,/ E,C, | F,2- F,/E,/F,/G,/ F,E, | D,2- D,/C,/D,/E,/ F,D, | %48
 G,2- G,/F,/G,/A,/ G,D, | E,3 D,/C,/ ^B,,/G,,/^A,,/B,,/ | C,/^B,,/C,/D,/ E,2- E,/D,/E,/F,/ | %51
 G, z C,,/D,,/E,,/F,,/ G,,2- | G,,F,, E,,D,, E,,/G,,/^A,,/^B,,/ | C,6- | C,6- | %55
 C,2- C,/G,,/4F,,/4^E,,/4F,,/4G,,/ C,,2 | z6 | z6 | z6 | z6 | z6 | z6 | z6 | z6 | z6 | z6 | z6 | %67
 z6 | z6 | z6 | C,2 G,,4 | A,,2 C,4 | =D,2 C,2 B,,2 | A,,3 G,, ^A,,^B,, | C,3 ^B,, C,D, | %75
 E,3 D, E,F, | E,D, C,2- C,B,,/A,,/ | G,,/F,,/E,,/D,,/ C,,2- C,,/^B,,,/C,,/D,,/ | %78
 E,,F,, G,,2- G,,A,,/B,,/ | A,,2 G,,2- G,,F,, | E,,2- E,,D,, E,,F,, | G,,4 z/ G,,/F,,/E,,/ | %82
 D,,/E,,/D,,/C,,/ B,,, z z2 | z4 G,,2- | G,,^A,, B,,C, D,E, | D,=G, ^G,4- | G,F,/E,/ D,^E, F,G, | %87
 A,3 F,/A,/ G,/B,/A,/C/ | B,2- B,/A,/G,/F,/ E,2- | E,2 E,,/F,,/G,,/A,,/ G,,E,, | %90
 A,,/B,,/C,/D,/ E,2- E,/D,/E,/F,/ | G,/F,/E,/D,/ C,4 | %92
 B,,/C,/B,,/A,,/ G,,/A,,/G,,/F,,/ E,,/F,,/G,,/A,,/ | B,,/C,/D,/C,/ B,, B,,2 A,,/G,,/ | F,,6- | %95
 F,,E,,/=D,,/ E,,F,, G,,2- | G,,4- G,,F,,/E,,/ | F,,/G,,/A,,/G,,/ A,,G,, F,,2 | %98
 C, C,,2 D,,/E,,/ F,,/D,,/E,,/F,,/ | G,,/A,,/G,,/F,,/ E,,2- E,,/F,,/E,,/D,,/ | %100
 C,,/D,,/C,,/^B,,,/ C,,/D,,/E,,/F,,/ G,,2- | G,,/A,,/G,,/F,,/ G,,/A,,/B,,/C,/ B,,/A,,/G,,/F,,/ | %102
 E,,/F,,/E,,/D,,/ E,,/F,,/G,,/A,,/ G,,/F,,/E,,/G,,/ | B,,/C,/B,,/^A,,/ B,,G,, B,,G,, | %104
 D,,/E,,/D,,/C,,/ D,,/E,,/F,,- F,,/E,,/F,,/G,,/ | %105
 A,,/B,,/A,,/G,,/ A,,/F,,/F,- F,/E,/D,/C,/4^B,,/4 | C,6- | C,6- | C,6- | C,6- | %110
 C,D,/E,/ D,/C,/^B,,/^A,,/ G,,2- | G,,^A,, ^B,,C, D,/C,/B,, | C,6 |] %113

